X: 1
T:Sporting Paddy
C:Trad
R:Reel
M:C|
K:ADor
Z:From Capercaillie's 'Get Out'
L:1/8
EAAA GABG|EAAB G2ED|EAAA GABd|1 edge dBAG :|2 edge d2ef|
geee gede|gede a2ba|geee gedg|efge d2ef|
geee gede|gede a2ga|bgab gedg|efge dBAG||
